public/avatar/hat/228.svg

<svg xmlns:xlink="http://www.w3.org/1999/xlink" height="92.9" width="100.7" xmlns="http://www.w3.org/2000/svg"><use height="42.65" transform="translate(15.25 35.8)" width="46.25" xlink:href="#a"/><defs><g id="a" fill-rule="evenodd"><path d="m15.3 10.35-2.25-.1 2.6 3.95-2.2-1.6 3.6 6.9-2.85-2.65 2.25 5.1-2.15-1.45v1.35q-.5-9.4-2.6-12.85l.2-1.05 2.3.75 1.1 1.65" fill="#442119" transform="translate(23.4 13.95)"/><path d="m-14 6.55 1.2-.6V7.3q0 1.4 2.15 2l1.15.35-.7.95q-1.95 2.7-2.3 11.4l-.05.45-.4-.6q-3.9.2-6.25 3.25l-1.55 3.6.1-2.25q.15-1.75 1.2-3.95l-2.2 1.7 1.1-2.85q.4-1.15 1.55-3.15l-1.9 1.15.9-2.35 1.4-2.4-1.7 1q1.3-2.75 2.65-4.55l.15-.15-1.9.15.95-1.55Q-17.4 7.95-14 6.55" fill="#0d090e" transform="translate(23.4 13.95)"/><path d="m-15.95 10.2-1.8-.25 4.1-2.65q0 2 2.75 2.8-1.3 1.75-2 7l-.45 4.85q-3.6-.05-6 3.65.05-1.6 1.1-3.75L-17.2 20l-2.6 1.65 2.85-5.25q-.8.05-2.25.9l2.95-4.1q-1-.2-2.5 1 .5-1.15 2.8-4" fill="#795241" transform="translate(23.4 13.95)"/><path d="m-17.75 9.95 1.8-1.35q1.15 1.75-1.8 1.35m3.55 1.95-2.6 3.5 1.95-.1-4.55 6 2.45-4.9-2.25.9q1.2-2.05 2.9-3.95l-2.4.65 1.15-1.5q1.35-1.6 2.4-2.15l-1.25 1.95 2.2-.4m-5.45 14.15q.6-3.1 2.25-5.7 0 2.85-2.25 5.7" fill="#b8957e" transform="translate(23.4 13.95)"/><path d="M20.5 22.5q1.1 2.5 1.15 3.95l.15 2.25-1.55-3.6q-1.5-1.9-4.05-2.75l-2.25-.5-.45.6V22q-.35-8.7-2.3-11.4l-.7-.95 1.15-.35q2.15-.6 2.15-2V5.95l1.2.6q3.4 1.4 4.5 2.95l.95 1.55-1.9-.15.15.15q1.75 2.5 2.6 4.55-1.3-1.3-1.7-1L21 17l.95 2.35-1.9-1.15 1.55 3.15 1.1 2.85-2.2-1.7" fill="#0d090e" transform="translate(23.4 13.95)"/><path d="m18.75 9.95-1.8.25 2.85 4q-.95-.75-1.85-.95l-.7-.05 1.2 1.3q1.3 1.55 1.75 2.8l-2.2-.9 2.8 5.25L18.2 20l1.05 1.85Q20.3 24 20.4 25.6q-1.5-2.3-3.9-3.2l-2.15-.45Q13.9 12.9 11.9 10.1q2.75-.8 2.75-2.8l4.1 2.65" fill="#795241" transform="translate(23.4 13.95)"/><path d="m19.7 14-2.4-.65 2.9 3.95-2.2-.9 2.45 4.9-4.6-6 2 .1-2.65-3.5 2.2.4-1.25-1.95q1.7.85 3.55 3.65m-.75-4.05q-1.85.25-2-.5l.2-.85 1.8 1.35m2.8 16.1q-2.25-2.85-2.25-5.7 1.65 2.6 2.25 5.7" fill="#b8957e" transform="translate(23.4 13.95)"/><path d="m17.15-11.9 1.05-2 .5 2.2.25 2.2q0 5.85-4.85 9.75 3.75 2.45 7.45 3.3l1.3.3-.8 1.05q-2.5 3.2-5.6 3.55-1.65.2-3.4-.7-.25 1.4-.9 2.05-1.45 1.55-5.2 1.25-1.4-.1-3.6-1.3Q1.05 8.5-.2 8.5q-1.3 0-3.8 1.25-2.4 1.2-3.7 1.3-3.6.3-5.15-1.25-.7-.7-.85-2-1.8.85-3.35.65-3.05-.35-5.55-3.55l-.8-1.05 1.3-.3q3.6-.85 7.35-3.3-4.8-3.95-4.8-9.75l.25-2.2.5-2.25 1.05 2.05q2.5 4.85 6.05 6.1l2.8-1.1q1.3-.7 3.3.9 3.45-1.25 5.15-1.25 1.85 0 5.3 1.25 2-1.55 3.3-.9L11-5.8q3.65-1.3 6.15-6.1" fill="#0d090e" transform="translate(23.4 13.95)"/><path d="m5-5.05 1.05-.75q1.15-.65 1.75-.35 1 .5 3.2 1.25 4-1.1 6.9-6.6.8 3.5-1.2 7.25-1.75 3.2-4.05 4.45 3.15 2.9 8.7 4.2-2.25 2.9-5 3.2-2.3.25-4.05-1.2.45 4.25-5.25 3.8-1.15-.05-3.55-1.35-2.25-1.2-3.7-1.2-1.45 0-3.9 1.2-2.55 1.3-3.7 1.35-5.6.45-5.15-3.8-1.75 1.45-4 1.2-2.7-.3-4.95-3.2 5.45-1.3 8.6-4.2-2.3-1.25-4-4.45-2-3.75-1.2-7.25 2.85 5.5 6.8 6.6l3.15-1.25q1-.5 2.75 1.1L-.45-6.4Q1.2-6.4 5-5.05" fill="#795241" transform="translate(23.4 13.95)"/><path d="M-4.15-1.7q3.1.2 1.9.55Q-3.5.35-6.7 1.15q-2.05.5-3.25-1.15-.95-1.3-.8-2.15.15-.5 1.45-.75 1.4-.3 1.8.25 1.15 1.5 3.35.95m8.9 1.65q-.35-.45-2.1-.9-1.7-.4-1.7-.5l2.5-.2q1.25.2 2.65-.75l1.85-1.35 3.45.3q-1.1 1.55 0 4.1.95 2.15 2.55 3.3 1.75 1.25 5.45 1.6-.65 1.3-3.85 1.9-1.9.35-3.65-2.4l-1.25-2.3.55 2.5q.45 2.15.25 3-.45 1.7-5.95.55Q1.3 6.9-.4 6.95q-.9.05-1.3-.4l-1.45-1.2q-.9-.45-1.2-1.4-.3-.95.45-1.35 2.8-1.55 5.15-1.1 2.65.45 4 2.25.7.9 1.85.9 1.05 0 1.1-.7.05-.55-1.45-2.05l-2-1.95" fill="#442119" transform="translate(23.4 13.95)"/><path d="M-4.95-1.3Q-7 .25-8.7.2q-1.95-.05-2.25-2.5l.35-.5q.5-.55 1.2-.6l1.75 1.25q1.25 1.2 2.7.85" fill="#fff" transform="translate(23.4 13.95)"/><path d="M-9.95-1.65q0-1.2.9-1.7L-6.7-1.5Q-6.8-.35-7.65.1l-1.2.1q-1.1-.5-1.1-1.85" transform="translate(23.4 13.95)"/><path d="M-8.25-1.9q0 .8-.55.8-.5 0-.5-.8t.5-.8q.55 0 .55.8m12.3.6q1.5.35 2.75-.85L8.5-3.4q1.15.1 1.6 1.1Q9.8.15 7.85.2q-1.7.05-3.8-1.5" fill="#fff" transform="translate(23.4 13.95)"/><path d="M9.1-1.65Q9.1-.35 7.95.2L6.75.1q-.9-.55-.9-1.6 1-.55 2.3-1.85.95.5.95 1.7" transform="translate(23.4 13.95)"/><path d="M7.4-1.9q0-.8.5-.8.55 0 .55.8t-.55.8q-.5 0-.5-.8m-19.1-3q-1.4.9-.85 2l.85.95.15 2.05-1.75.1q-6-5.25-5-11.2 1.75 4.35 6.6 6.1m23.05-.25q4.85-1.75 6.6-6.1.95 5.95-5.05 11.2l-1.75-.1.2-2.05q2.25-1.5 0-2.95" fill="#fff" transform="translate(23.4 13.95)"/><path d="M-14.65 7.3q2.85-1.5 2.7-7.25.4-.45.75-.2.4.25.3 1-.05 1-2.05 6.35l-1.7.1m14.9 4.5-4.6-.7-2.25-.7 2.7-1.05Q-1 8.3.15 8.3q1.85 0 6.9 2.1-3.75 1.4-6.8 1.4" fill="#0d090e" transform="translate(23.4 13.95)"/><path d="m4.45 10.3-4.2.65-5-.8 4.6-1.7q.9 0 4.6 1.85" fill="#fff" transform="translate(23.4 13.95)"/><path d="m-12.95-4.4 1.2-1.15.05.65q-1.75 1.3 0 2.95.6 1.75-.25 2.5-.2-.65-1.4-.15l-1.2.65q.4-.8.3-1.2.65.3 1.35-.3.65-.55.65-1.2-1.6-1.3-.7-2.75M14 7.3l-1.7-.1Q10.35 1.85 10.25.85q-.1-2 1.1-.8Q11.15 5.8 14 7.3" fill="#0d090e" transform="translate(23.4 13.95)"/><path d="m-2.3-.2 1.1-.8Q.5-1.05-.5.05q-.95 1.1-2.7 1.7-1.45.55-2.9 2.2-1.3 1.6-1.2 2.35l.35 1.35q.1.75-.7 1.05-3.3 1.3-4.1-1.1-.4-1.25 1.3-3.05Q-8.9 2.85-6.95 2q4.6-2 4.65-2.2" fill="#b8957e" transform="translate(23.4 13.95)"/><path d="M11.15-5.55q3 1.8.5 3.9 0 .65.65 1.2.65.6 1.25.3-.05.4.35 1.2L12.75.4Q11.5-.1 11.3.55q-.9-.8-.2-2.5 1.65-1.65 0-2.95l.05-.65M3.7 1q2.05.9 2 1.85-.1 2.5-2.85 3.4-.8.3-.35-.1L3.7 5.1q1.7-1.7 1.15-2.45Q3.45.95-.25.95q-3.7 0-5.1 1.7-.6.75 1.1 2.45L-3 6.15q.45.35-.35.1-2.8-.9-2.9-3.4Q-6.3 1.9-4.2 1-2.15.1-.25.15 1.65.1 3.7 1" fill="#0d090e" transform="translate(23.4 13.95)"/><path d="M-1.55 5.35q-1.4.15-1.65-.9-.05-.4.5-.75t.95 0q.5.35.55 1 .05.6-.35.65m2.65 0Q.7 5.3.75 4.7q.1-.6.55-1 .4-.35.95 0 .55.35.45.75-.15 1.05-1.6.9" fill="#0d090e" transform="translate(23.4 13.95)"/><path d="M-12.3-3.8q.15-.6 4.05-2.2.75-.3 4.25 2.55l1.95.15q.25.15.2.7-.1.5-.45.45-5.1-.75-5.5-1.45l1.7-.25q-1.05-.85-2.4-1.2l-2 .7q-1.45.75-1.3 1.1.25.45-.2.2-.4-.25-.3-.75M8.2-5.05Q6-4.6 5.25-3.3q-.35.55-3.35 1.15-.35.05-.4-.45-.1-.55.15-.7l.65.1q.6.15 1.35-.25L6-5.1Q7.5-6.2 7.95-6q4 1.6 4.1 2.2.15.7-.55.55.2-.35-1.3-1.1-1.45-.8-2-.7m-23.05 6.5q1.7-1.1.35.35l-2.6 2.45-1.5 2.2-.15-1.85q-1.2.75-1.5.75l.95-1.1h-2.1l2.35-.8q2.65-.95 4.2-2m28.75-.4L16 2.3q2.6 1.35 5.05 2-4.25.3-7.15-3.25M3.5-5.05l-1.3 1.3V-5.4L.55-3.3l-.1-2.4-.8 1.7-.95-1.65.25 1-2.4.5-2-1.05q3.6-1.2 5-1.2 1.4-.05 3.95 1.35" fill="#b8957e" transform="translate(23.4 13.95)"/><path d="M-12.3-1.3q-.7.9-1.45 1.15-2.35-1-3.65-5.55-.45-1.5-.5-2.45 0-.9.35.15.95 2.7 5.25 6.7m23.7 0q4.45-4 5.45-6.7-.15 6.25-4 7.85L11.4-1.3" fill="#b8b6b6" transform="translate(23.4 13.95)"/><path d="M4.95-5.65Q-.65-7.1-5.25-5.8q1.2-1 1.2-1.95 1.45 1.55 3.6-.7.1 1.3 1.1 1.4Q1.7-7 2-8.3q.25.95 1.05 1.3l1.1-.05Q3.7-6.5 4.3-6q.3.25.65.35" fill="#0d090e" transform="translate(23.4 13.95)"/><path d="M2.1-6.7q.2.25 1.2.35l.4 1-3.55-.4-4.6.25q.5-.45.75-1.1 1 .75 2.9-.2l2.9.1m8.15 8.5q3.5 6.15 1.4 7.5-1.3.85-3.25 1.05H6.7q3.85-1 4.15-2.55l-.6-6" fill="#b8957e" transform="translate(23.4 13.95)"/></g></defs></svg>

<?xml version="1.0" encoding="UTF-8" standalone="no"?>
<svg xmlns:xlink="http://www.w3.org/1999/xlink" height="92.9px" width="100.7px" xmlns="http://www.w3.org/2000/svg">
  <g transform="matrix(1.0, 0.0, 0.0, 1.0, 38.65, 49.75)">
    <use height="42.65" transform="matrix(1.0, 0.0, 0.0, 1.0, -23.4, -13.95)" width="46.25" xlink:href="#shape0"/>
  </g>
  <defs>
    <g id="shape0" transform="matrix(1.0, 0.0, 0.0, 1.0, 23.4, 13.95)">
      <path d="M15.3 10.35 L13.05 10.25 15.65 14.2 13.45 12.6 17.05 19.5 14.2 16.85 16.45 21.95 14.3 20.5 14.3 21.85 Q13.8 12.45 11.7 9.0 L11.9 7.95 14.2 8.7 15.3 10.35" fill="#442119" fill-rule="evenodd" stroke="none"/>
      <path d="M-14.0 6.55 L-12.8 5.95 -12.8 7.3 Q-12.8 8.7 -10.65 9.3 L-9.5 9.65 -10.2 10.6 Q-12.15 13.3 -12.5 22.0 L-12.55 22.45 -12.95 21.85 Q-16.85 22.05 -19.2 25.1 L-20.75 28.7 -20.65 26.45 Q-20.5 24.7 -19.45 22.5 L-21.65 24.2 -20.55 21.35 Q-20.15 20.2 -19.0 18.2 L-20.9 19.35 -20.0 17.0 -18.6 14.6 -20.3 15.6 Q-19.0 12.85 -17.65 11.05 L-17.5 10.9 -19.4 11.05 -18.45 9.5 Q-17.4 7.95 -14.0 6.55" fill="#0d090e" fill-rule="evenodd" stroke="none"/>
      <path d="M-15.95 10.2 L-17.75 9.95 -13.65 7.3 Q-13.65 9.3 -10.9 10.1 -12.2 11.85 -12.9 17.1 L-13.35 21.95 Q-16.95 21.9 -19.35 25.6 -19.3 24.0 -18.25 21.85 L-17.2 20.0 -19.8 21.65 -16.95 16.4 Q-17.75 16.45 -19.2 17.3 L-16.25 13.2 Q-17.25 13.0 -18.75 14.2 -18.25 13.05 -15.95 10.2" fill="#795241" fill-rule="evenodd" stroke="none"/>
      <path d="M-17.75 9.95 L-15.95 8.6 Q-14.8 10.35 -17.75 9.95" fill="#b8957e" fill-rule="evenodd" stroke="none"/>
      <path d="M-14.2 11.9 L-16.8 15.4 -14.85 15.3 -19.4 21.3 -16.95 16.4 -19.2 17.3 Q-18.0 15.25 -16.3 13.35 L-18.7 14.0 -17.55 12.5 Q-16.2 10.9 -15.15 10.35 L-16.4 12.3 -14.2 11.9" fill="#b8957e" fill-rule="evenodd" stroke="none"/>
      <path d="M-19.65 26.05 Q-19.05 22.95 -17.4 20.35 -17.4 23.2 -19.65 26.05" fill="#b8957e" fill-rule="evenodd" stroke="none"/>
      <path d="M20.5 22.5 Q21.6 25.0 21.65 26.45 L21.8 28.7 20.25 25.1 Q18.75 23.2 16.2 22.35 L13.95 21.85 13.5 22.45 13.5 22.0 Q13.15 13.3 11.2 10.6 L10.5 9.65 11.65 9.3 Q13.8 8.7 13.8 7.3 L13.8 5.95 15.0 6.55 Q18.4 7.95 19.5 9.5 L20.45 11.05 18.55 10.9 18.7 11.05 Q20.45 13.55 21.3 15.6 20.0 14.3 19.6 14.6 L21.0 17.0 21.95 19.35 20.05 18.2 21.6 21.35 22.7 24.2 20.5 22.5" fill="#0d090e" fill-rule="evenodd" stroke="none"/>
      <path d="M18.75 9.95 L16.95 10.2 19.8 14.2 Q18.85 13.45 17.95 13.25 L17.25 13.2 18.45 14.5 Q19.75 16.05 20.2 17.3 L18.0 16.4 20.8 21.65 18.2 20.0 19.25 21.85 Q20.3 24.0 20.4 25.6 18.9 23.3 16.5 22.4 L14.35 21.95 Q13.9 12.9 11.9 10.1 14.65 9.3 14.65 7.3 L18.75 9.95" fill="#795241" fill-rule="evenodd" stroke="none"/>
      <path d="M19.7 14.0 L17.3 13.35 20.2 17.3 18.0 16.4 20.45 21.3 15.85 15.3 17.85 15.4 15.2 11.9 17.4 12.3 16.15 10.35 Q17.85 11.2 19.7 14.0" fill="#b8957e" fill-rule="evenodd" stroke="none"/>
      <path d="M18.95 9.95 Q17.1 10.2 16.95 9.45 L17.15 8.6 18.95 9.95" fill="#b8957e" fill-rule="evenodd" stroke="none"/>
      <path d="M21.75 26.05 Q19.5 23.2 19.5 20.35 21.15 22.95 21.75 26.05" fill="#b8957e" fill-rule="evenodd" stroke="none"/>
      <path d="M17.15 -11.9 L18.2 -13.9 18.7 -11.7 18.95 -9.5 Q18.95 -3.65 14.1 0.25 17.85 2.7 21.55 3.55 L22.85 3.85 22.05 4.9 Q19.55 8.1 16.45 8.45 14.8 8.65 13.05 7.75 12.8 9.15 12.15 9.8 10.7 11.35 6.95 11.05 5.55 10.95 3.35 9.75 1.05 8.5 -0.2 8.5 -1.5 8.5 -4.0 9.75 -6.4 10.95 -7.7 11.05 -11.3 11.35 -12.85 9.8 -13.55 9.1 -13.7 7.8 -15.5 8.65 -17.05 8.45 -20.1 8.1 -22.6 4.9 L-23.4 3.85 -22.1 3.55 Q-18.5 2.7 -14.75 0.25 -19.55 -3.7 -19.55 -9.5 L-19.3 -11.7 -18.8 -13.95 -17.75 -11.9 Q-15.25 -7.05 -11.7 -5.8 L-8.9 -6.9 Q-7.6 -7.6 -5.6 -6.0 -2.15 -7.25 -0.45 -7.25 1.4 -7.25 4.85 -6.0 6.85 -7.55 8.15 -6.9 L11.0 -5.8 Q14.65 -7.1 17.15 -11.9" fill="#0d090e" fill-rule="evenodd" stroke="none"/>
      <path d="M5.0 -5.05 L6.05 -5.8 Q7.2 -6.45 7.8 -6.15 8.8 -5.65 11.0 -4.9 15.0 -6.0 17.9 -11.5 18.7 -8.0 16.7 -4.25 14.95 -1.05 12.65 0.2 15.8 3.1 21.35 4.4 19.1 7.3 16.35 7.6 14.05 7.85 12.3 6.4 12.75 10.65 7.05 10.2 5.9 10.15 3.5 8.85 1.25 7.65 -0.2 7.65 -1.65 7.65 -4.1 8.85 -6.65 10.15 -7.8 10.2 -13.4 10.65 -12.95 6.4 -14.7 7.85 -16.95 7.6 -19.65 7.3 -21.9 4.4 -16.45 3.1 -13.3 0.2 -15.6 -1.05 -17.3 -4.25 -19.3 -8.0 -18.5 -11.5 -15.65 -6.0 -11.7 -4.9 L-8.55 -6.15 Q-7.55 -6.65 -5.8 -5.05 L-0.45 -6.4 Q1.2 -6.4 5.0 -5.05" fill="#795241" fill-rule="evenodd" stroke="none"/>
      <path d="M-4.15 -1.7 Q-1.05 -1.5 -2.25 -1.15 -3.5 0.35 -6.7 1.15 -8.75 1.65 -9.95 0.0 -10.9 -1.3 -10.75 -2.15 -10.6 -2.65 -9.3 -2.9 -7.9 -3.2 -7.5 -2.65 -6.35 -1.15 -4.15 -1.7" fill="#442119" fill-rule="evenodd" stroke="none"/>
      <path d="M4.75 -0.05 Q4.4 -0.5 2.65 -0.95 0.95 -1.35 0.95 -1.45 L3.45 -1.65 Q4.7 -1.45 6.1 -2.4 L7.95 -3.75 11.4 -3.45 Q10.3 -1.9 11.4 0.65 12.35 2.8 13.95 3.95 15.7 5.2 19.4 5.55 18.75 6.85 15.55 7.45 13.65 7.8 11.9 5.05 L10.65 2.75 11.2 5.25 Q11.65 7.4 11.45 8.25 11.0 9.95 5.5 8.8 1.3 6.9 -0.4 6.95 -1.3 7.0 -1.7 6.55 L-3.15 5.35 Q-4.05 4.9 -4.35 3.95 -4.65 3.0 -3.9 2.6 -1.1 1.05 1.25 1.5 3.9 1.95 5.25 3.75 5.95 4.65 7.1 4.65 8.15 4.65 8.2 3.95 8.25 3.4 6.75 1.9 L4.75 -0.05" fill="#442119" fill-rule="evenodd" stroke="none"/>
      <path d="M-4.95 -1.3 Q-7.0 0.25 -8.7 0.2 -10.65 0.15 -10.95 -2.3 L-10.6 -2.8 Q-10.1 -3.35 -9.4 -3.4 L-7.65 -2.15 Q-6.4 -0.95 -4.95 -1.3" fill="#ffffff" fill-rule="evenodd" stroke="none"/>
      <path d="M-9.95 -1.65 Q-9.95 -2.85 -9.05 -3.35 L-6.7 -1.5 Q-6.8 -0.35 -7.65 0.1 L-8.85 0.2 Q-9.95 -0.3 -9.95 -1.65" fill="#000000" fill-rule="evenodd" stroke="none"/>
      <path d="M-8.25 -1.9 Q-8.25 -1.1 -8.8 -1.1 -9.3 -1.1 -9.3 -1.9 -9.3 -2.7 -8.8 -2.7 -8.25 -2.7 -8.25 -1.9" fill="#ffffff" fill-rule="evenodd" stroke="none"/>
      <path d="M4.05 -1.3 Q5.55 -0.95 6.8 -2.15 L8.5 -3.4 Q9.65 -3.3 10.1 -2.3 9.8 0.15 7.85 0.2 6.15 0.25 4.05 -1.3" fill="#ffffff" fill-rule="evenodd" stroke="none"/>
      <path d="M9.1 -1.65 Q9.1 -0.35 7.95 0.2 L6.75 0.1 Q5.85 -0.45 5.85 -1.5 6.85 -2.05 8.15 -3.35 9.1 -2.85 9.1 -1.65" fill="#000000" fill-rule="evenodd" stroke="none"/>
      <path d="M7.4 -1.9 Q7.4 -2.7 7.9 -2.7 8.45 -2.7 8.45 -1.9 8.45 -1.1 7.9 -1.1 7.4 -1.1 7.4 -1.9" fill="#ffffff" fill-rule="evenodd" stroke="none"/>
      <path d="M-11.7 -4.9 Q-13.1 -4.0 -12.55 -2.9 L-11.7 -1.95 -11.55 0.1 -13.3 0.2 Q-19.3 -5.05 -18.3 -11.0 -16.55 -6.65 -11.7 -4.9" fill="#ffffff" fill-rule="evenodd" stroke="none"/>
      <path d="M11.35 -5.15 Q16.2 -6.9 17.95 -11.25 18.9 -5.3 12.9 -0.05 L11.15 -0.15 11.35 -2.2 Q13.6 -3.7 11.35 -5.15" fill="#ffffff" fill-rule="evenodd" stroke="none"/>
      <path d="M-14.65 7.3 Q-11.8 5.8 -11.95 0.05 -11.55 -0.4 -11.2 -0.15 -10.8 0.1 -10.9 0.85 -10.95 1.85 -12.95 7.2 L-14.65 7.3" fill="#0d090e" fill-rule="evenodd" stroke="none"/>
      <path d="M0.25 11.8 L-4.35 11.1 -6.6 10.4 -3.9 9.35 Q-1.0 8.3 0.15 8.3 2.0 8.3 7.05 10.4 3.3 11.8 0.25 11.8" fill="#0d090e" fill-rule="evenodd" stroke="none"/>
      <path d="M4.45 10.3 L0.25 10.95 -4.75 10.15 -0.15 8.45 Q0.75 8.45 4.45 10.3" fill="#ffffff" fill-rule="evenodd" stroke="none"/>
      <path d="M-12.95 -4.4 L-11.75 -5.55 -11.7 -4.9 Q-13.45 -3.6 -11.7 -1.95 -11.1 -0.2 -11.95 0.55 -12.15 -0.1 -13.35 0.4 L-14.55 1.05 Q-14.15 0.25 -14.25 -0.15 -13.6 0.15 -12.9 -0.45 -12.25 -1.0 -12.25 -1.65 -13.85 -2.95 -12.95 -4.4" fill="#0d090e" fill-rule="evenodd" stroke="none"/>
      <path d="M14.0 7.3 L12.3 7.2 Q10.35 1.85 10.25 0.85 10.15 -1.15 11.35 0.05 11.15 5.8 14.0 7.3" fill="#0d090e" fill-rule="evenodd" stroke="none"/>
      <path d="M-2.3 -0.2 L-1.2 -1.0 Q0.5 -1.05 -0.5 0.05 -1.45 1.15 -3.2 1.75 -4.65 2.3 -6.1 3.95 -7.4 5.55 -7.3 6.3 L-6.95 7.65 Q-6.85 8.4 -7.65 8.7 -10.95 10.0 -11.75 7.6 -12.15 6.35 -10.45 4.55 -8.9 2.85 -6.95 2.0 -2.35 0.0 -2.3 -0.2" fill="#b8957e" fill-rule="evenodd" stroke="none"/>
      <path d="M11.15 -5.55 Q14.15 -3.75 11.65 -1.65 11.65 -1.0 12.3 -0.45 12.95 0.15 13.55 -0.15 13.5 0.25 13.9 1.05 L12.75 0.4 Q11.5 -0.1 11.3 0.55 10.4 -0.25 11.1 -1.95 12.75 -3.6 11.1 -4.9 L11.15 -5.55" fill="#0d090e" fill-rule="evenodd" stroke="none"/>
      <path d="M3.7 1.0 Q5.75 1.9 5.7 2.85 5.6 5.35 2.85 6.25 2.05 6.55 2.5 6.15 L3.7 5.1 Q5.4 3.4 4.85 2.65 3.45 0.95 -0.25 0.95 -3.95 0.95 -5.35 2.65 -5.95 3.4 -4.25 5.1 L-3.0 6.15 Q-2.55 6.5 -3.35 6.25 -6.15 5.35 -6.25 2.85 -6.3 1.9 -4.2 1.0 -2.15 0.1 -0.25 0.15 1.65 0.1 3.7 1.0" fill="#0d090e" fill-rule="evenodd" stroke="none"/>
      <path d="M-1.55 5.35 Q-2.95 5.5 -3.2 4.45 -3.25 4.05 -2.7 3.7 -2.15 3.35 -1.75 3.7 -1.25 4.05 -1.2 4.7 -1.15 5.3 -1.55 5.35" fill="#0d090e" fill-rule="evenodd" stroke="none"/>
      <path d="M1.1 5.35 Q0.7 5.3 0.75 4.7 0.85 4.1 1.3 3.7 1.7 3.35 2.25 3.7 2.8 4.05 2.7 4.45 2.55 5.5 1.1 5.35" fill="#0d090e" fill-rule="evenodd" stroke="none"/>
      <path d="M-12.3 -3.8 Q-12.15 -4.4 -8.25 -6.0 -7.5 -6.3 -4.0 -3.45 L-2.05 -3.3 Q-1.8 -3.15 -1.85 -2.6 -1.95 -2.1 -2.3 -2.15 -7.4 -2.9 -7.8 -3.6 L-6.1 -3.85 Q-7.15 -4.7 -8.5 -5.05 L-10.5 -4.35 Q-11.95 -3.6 -11.8 -3.25 -11.55 -2.8 -12.0 -3.05 -12.4 -3.3 -12.3 -3.8" fill="#b8957e" fill-rule="evenodd" stroke="none"/>
      <path d="M8.2 -5.05 Q6.0 -4.6 5.25 -3.3 4.9 -2.75 1.9 -2.15 1.55 -2.1 1.5 -2.6 1.4 -3.15 1.65 -3.3 L2.3 -3.2 Q2.9 -3.05 3.65 -3.45 L6.0 -5.1 Q7.5 -6.2 7.95 -6.0 11.95 -4.4 12.05 -3.8 12.2 -3.1 11.5 -3.25 11.7 -3.6 10.2 -4.35 8.75 -5.15 8.2 -5.05" fill="#b8957e" fill-rule="evenodd" stroke="none"/>
      <path d="M-14.85 1.45 Q-13.15 0.35 -14.5 1.8 L-17.1 4.25 -18.6 6.45 -18.75 4.6 Q-19.95 5.35 -20.25 5.35 L-19.3 4.25 -21.4 4.25 -19.05 3.45 Q-16.4 2.5 -14.85 1.45" fill="#b8957e" fill-rule="evenodd" stroke="none"/>
      <path d="M13.9 1.05 L16.0 2.3 Q18.6 3.65 21.05 4.3 16.8 4.6 13.9 1.05" fill="#b8957e" fill-rule="evenodd" stroke="none"/>
      <path d="M3.5 -5.05 L2.2 -3.75 2.2 -5.4 0.55 -3.3 0.45 -5.7 -0.35 -4.0 -1.3 -5.65 -1.05 -4.65 -3.45 -4.15 -5.45 -5.2 Q-1.85 -6.4 -0.45 -6.4 0.95 -6.45 3.5 -5.05" fill="#b8957e" fill-rule="evenodd" stroke="none"/>
      <path d="M-12.3 -1.3 Q-13.0 -0.4 -13.75 -0.15 -16.1 -1.15 -17.4 -5.7 -17.85 -7.2 -17.9 -8.15 -17.9 -9.05 -17.55 -8.0 -16.6 -5.3 -12.3 -1.3" fill="#b8b6b6" fill-rule="evenodd" stroke="none"/>
      <path d="M11.4 -1.3 Q15.85 -5.3 16.85 -8.0 16.7 -1.75 12.85 -0.15 L11.4 -1.3" fill="#b8b6b6" fill-rule="evenodd" stroke="none"/>
      <path d="M4.95 -5.65 Q-0.65 -7.1 -5.25 -5.8 -4.05 -6.8 -4.05 -7.75 -2.6 -6.2 -0.45 -8.45 -0.35 -7.15 0.65 -7.05 1.7 -7.0 2.0 -8.3 2.25 -7.35 3.05 -7.0 L4.15 -7.05 Q3.7 -6.5 4.3 -6.0 4.6 -5.75 4.95 -5.65" fill="#0d090e" fill-rule="evenodd" stroke="none"/>
      <path d="M2.1 -6.7 Q2.3 -6.45 3.3 -6.35 L3.7 -5.35 0.15 -5.75 -4.45 -5.5 Q-3.95 -5.95 -3.7 -6.6 -2.7 -5.85 -0.8 -6.8 L2.1 -6.7" fill="#b8957e" fill-rule="evenodd" stroke="none"/>
      <path d="M10.25 1.8 Q13.75 7.95 11.65 9.3 10.35 10.15 8.4 10.35 L6.7 10.35 Q10.55 9.35 10.85 7.8 L10.25 1.8" fill="#b8957e" fill-rule="evenodd" stroke="none"/>
    </g>
  </defs>
</svg>
